cssgg/gift.svg

<svg
  width="24"
  height="24"
  viewBox="0 0 24 24"
  fill="none"
  xmlns="http://www.w3.org/2000/svg"
>
  <path
    fill-rule="evenodd"
    clip-rule="evenodd"
    d="M17.5354 2.87868C16.3638 1.70711 14.4644 1.70711 13.2928 2.87868L11.8786 4.29289C11.8183 4.35317 11.7611 4.41538 11.707 4.47931C11.653 4.41539 11.5958 4.3532 11.5355 4.29293L10.1213 2.87871C8.94975 1.70714 7.05025 1.70714 5.87868 2.87871C4.70711 4.05029 4.70711 5.94978 5.87868 7.12136L6.75732 8H1V14H3V22H21V14H23V8H16.6567L17.5354 7.12132C18.707 5.94975 18.707 4.05025 17.5354 2.87868ZM14.707 7.12132L16.1212 5.70711C16.5117 5.31658 16.5117 4.68342 16.1212 4.29289C15.7307 3.90237 15.0975 3.90237 14.707 4.29289L13.2928 5.70711C12.9023 6.09763 12.9023 6.7308 13.2928 7.12132C13.6833 7.51184 14.3165 7.51184 14.707 7.12132ZM10.1213 5.70714L8.70711 4.29293C8.31658 3.9024 7.68342 3.9024 7.29289 4.29293C6.90237 4.68345 6.90237 5.31662 7.29289 5.70714L8.70711 7.12136C9.09763 7.51188 9.7308 7.51188 10.1213 7.12136C10.5118 6.73083 10.5118 6.09767 10.1213 5.70714ZM21 10V12H3V10H21ZM12.9167 14H19V20H12.9167V14ZM11.0834 14V20H5V14H11.0834Z"
    fill="currentColor"
  />
</svg>

<svg viewBox="0 0 24 24" xmlns="http://www.w3.org/2000/svg"><path fill-rule="evenodd" d="M17.53 2.87c-1.18-1.18-3.08-1.18-4.25 0l-1.42 1.41c-.07.06-.12.12-.18.18 -.06-.07-.12-.13-.18-.19l-1.42-1.42C8.9 1.67 7 1.67 5.83 2.85c-1.18 1.17-1.18 3.07 0 4.24l.87.87H.94v6h2v8h18v-8h2v-6h-6.35l.87-.88c1.17-1.18 1.17-3.08 0-4.25ZM14.7 7.11l1.41-1.42c.39-.4.39-1.03 0-1.42 -.4-.4-1.03-.4-1.42 0l-1.42 1.41c-.4.39-.4 1.02 0 1.41 .39.39 1.02.39 1.41 0Zm-4.59-1.42L8.69 4.27c-.4-.4-1.03-.4-1.42 0 -.4.39-.4 1.02 0 1.41l1.41 1.41c.39.39 1.02.39 1.41 0 .39-.4.39-1.03 0-1.42Zm10.87 4.29v2h-18v-2h18Zm-8.09 4h6.08v6h-6.09v-6Zm-1.84 0v6H4.96v-6h6.08Z"/></svg>
